X:1
T: Elgin Strathspey and Reel Players' Strathspey
C:William Macpherson
R:Strathspey
Q: 128
K:D
M:4/4
L:1/16
|:G2|F3D AF3 d3c1/2B1/2 AD3|G,3B, EFED CA,3 A,3G|F3D AF3 d2cB Ad3|B,3E A3c dD3 D3G|
F3D AF3 d3c1/2B1/2 AD3|G,3B, EFED CA,3 A,3G|F3D AF3 d2cB Ad3|g3e c3a fd3 d4|
((3D2F2A2) ((3d2A2d2) fd3 D4|((3G,2B,2D2) ((3G2B2d2) ge3 a4|((3D2F2A2) ((3d2A2d2) fd3 D4|((3B,2E2G2) ((3C2E2A2) AD3 D4|
d2f1/2e1/2d1/2c1/2 ((3d2A2F2) ((3D2F2A2) ((3d2A2F2)|G2G,1/2B,1/2D1/2G1/2 ((3B2G2B2) ((3C2B,2A,2) ((3A,2B,2C2)|F3D AF3 d2cB AD3|G,3B, EFED CA,3 A,3G|
F3D AF3 d3c1/2B1/2 AD3|B,3G A3c dD3 D2||
